X: 11031
T: ELLEN'S HORNPIPE
C: Bob McQuillen 27 Dec 01
B: Bob's Note Book 11 #31
%R: hornpipe, reel
Z: 2020 John Chambers <jc:trillian.mit.edu>
M: C
L: 1/8
K: D
FE \
| D2FA dfed | BGBd A2AG | FAdf gfed | c2e2 e2FE |
| D2FA dfed | BGBd g2ag | fAdf gecd | e2d2 d2 :|
|: de \
| f2dB Adfd | B2G2 G2ef | g2gf edgf | edcB A2de |
| fdAF D2de | fded B2ag | fafd egec | d2f2 d2 :|
%%begintext align
%% Ellen Chase is from
%% Hopkinton, and she's one of the regulars at the Monday -
%% Night - in - Nelson contra dances. We're always glad
%% to see you, Ellen, and we wish you a Happy New Year!
%% (Keep those dancing shoes oiled up!!)
%%endtext

%%sep 1 1 500

%%sep 1 1 500

